X:1
T:Jig : The Kingora
Z:Roger Ngaret (Mai 99)
R:
C: Trad. irlandais 
S:
A:Irlande
M:6/8
L:1/8
K:G
"G"G3 GAB | "D"ABA ABd | "G"edd gdd |
"Bm"edB dBA | "G"G3 GAB | "D"ABA ABd | "G"edB gdB |1
"D"AGF G2 D :|2 "F#dim"AGF G2 A ::
"Bm"B3 dBd | "Em"ege dBG | "G"BAB dBG |
"G"ABA AGA | "Bm"B3 dBd | "Em"ege dBd | "G"g3 aga |1
bgg g2 A :|2 bgg g2 D :|
